UI/POI/SVG/public-toilet_outline_24px.svg

<svg width="24" height="24" viewBox="0 0 24 24" fill="none" xmlns="http://www.w3.org/2000/svg">
<path d="M11 9C11.0274 8.49919 10.8556 8.00788 10.5221 7.63321C10.1887 7.25855 9.72061 7.03093 9.22 7H5.78C5.52797 7.00278 5.2793 7.05817 5.04992 7.16262C4.82053 7.26707 4.61549 7.41828 4.44793 7.60655C4.28036 7.79483 4.15396 8.01603 4.07683 8.25598C3.9997 8.49593 3.97353 8.74935 4 9V11L5 12L4 14V18H6V22H9V18H11V14L10 12L11 11V9ZM9 16H6V14.47L6.74 13H8.27L9 14.47V16ZM9 10.17L8.18 11H6.82L6 10.17V9H9V10.17ZM7.5 6C7.09861 5.99473 6.7156 5.83089 6.43458 5.54424C6.15355 5.25759 5.99733 4.87142 6 4.47V3.53C5.99733 3.12858 6.15355 2.74241 6.43458 2.45576C6.7156 2.16911 7.09861 2.00527 7.5 2V2C7.90139 2.00527 8.2844 2.16911 8.56543 2.45576C8.84645 2.74241 9.00268 3.12858 9 3.53V4.47C9.00268 4.87142 8.84645 5.25759 8.56543 5.54424C8.2844 5.83089 7.90139 5.99473 7.5 6V6ZM20 9V12H17V9H20ZM18.5 2C18.0986 2.00527 17.7156 2.16911 17.4346 2.45576C17.1536 2.74241 16.9973 3.12858 17 3.53V4.47C17 4.86783 17.158 5.24936 17.4393 5.53066C17.7206 5.81197 18.1022 5.97 18.5 5.97C18.8978 5.97 19.2794 5.81197 19.5607 5.53066C19.842 5.24936 20 4.86783 20 4.47V3.53C19.9995 3.12645 19.8417 2.739 19.56 2.45C19.4227 2.30751 19.258 2.19421 19.0759 2.11688C18.8938 2.03956 18.6979 1.9998 18.5 2V2ZM20.22 7H16.78C16.528 7.00278 16.2793 7.05817 16.0499 7.16262C15.8205 7.26707 15.6155 7.41828 15.4479 7.60655C15.2804 7.79483 15.154 8.01603 15.0768 8.25598C14.9997 8.49593 14.9735 8.74935 15 9V14H17V22H20V14H22V9C22.0274 8.49919 21.8556 8.00788 21.5221 7.63321C21.1887 7.25855 20.7206 7.03093 20.22 7Z" fill="#0F1621"/>
</svg>

<svg xmlns="http://www.w3.org/2000/svg" width="24" height="24" viewBox="0 0 24 24"><rect width="24" height="24" style="fill:none"/><path d="M11,9A1.9,1.9,0,0,0,9.22,7H5.78A1.81,1.81,0,0,0,4,9v2l1,1L4,14v4H6v4H9V18h2V14l-1-2,1-1ZM9,16H6V14.47L6.74,13H8.27L9,14.47Zm0-5.83L8.18,11H6.82L6,10.17V9H9ZM7.5,6h0A1.52,1.52,0,0,1,6,4.47V3.53A1.52,1.52,0,0,1,7.5,2h0A1.52,1.52,0,0,1,9,3.53v.94A1.52,1.52,0,0,1,7.5,6ZM20,9v3H17V9h3M18.5,2A1.52,1.52,0,0,0,17,3.53v.94a1.5,1.5,0,1,0,3,0V3.53a1.55,1.55,0,0,0-.44-1.08A1.47,1.47,0,0,0,18.5,2Zm1.72,5H16.78A1.81,1.81,0,0,0,15,9v5h2v8h3V14h2V9a1.9,1.9,0,0,0-1.78-2Z"/></svg>
